X:1
T:Prenez le galland
T:Mathias Sohier
T:Source : Livre premier contenant 29 chansons nouvelles à 4 parties---Paris---P.Attaignant---1536. Editor : André Vierendeels (30/12/17).
T:Prenez le galland
T:©
T:©
T:©
T:©
T:©
T:©
T:©
C:Mathias Sohier
Z:©
%%score [ 1 2 [ 3 4 ] ]
L:1/8
Q:1/4=90
M:4/4
K:C
V:1 treble nm="Soprano" snm="S"
V:2 treble nm="Alto" snm="A"
V:3 treble-8 nm="Tenor 1" snm="T 1"
V:4 treble-8 nm="Tenor 2" snm="T 2"
V:1
 z8 | z4 c3 c | c2 c2 c4 | G3 G B2 A2 | G2 GG ABcc | BGBA G3 A/B/ | c4 z4 | z2 GG ABcc | %8
w: |Pre- nez|le gal- land,|pre- nez le gal-|land, coup- pez luy les cho- ses,|lais- sez le pen- * * *|dant,|coup- pez luy les cho- ses|
 B2 G2 B2 A2 | G2 A3 G G2- | G2 F2 G4 | z2 c2 c2 B2 | c2 c2 e2 d2 | c3 B/A/ G2 G2 | A2 B2 c2 B2- | %15
w: lais- sez le pen-||* * dant,|Je- nyn iou-|oyt em- my ces|champs _ _ _ her-|soir tout tard _|
 BA A4 G2 | A2 e3 e d2 | e2 BB d2 c2 | B2 G2 A2 B2 | c2 d3 c c2- | c2 B2 A4 | G4 z2 e2- | %22
w: _ de son cor-|net, qui de sa|fem- me veid as- sez|pres, ung gal- land|der- rie- re ung|_ _ cor-|net, et|
 ed c2 B2 d2- | dc B2 A2 G2 | ABce dc B2 | e2 c3 edc | BB c2 G2 A2- | A2 B4 A2- | A2 G2 c4 | %29
w: _ Je- nyn court et|_ l'au- tre'a- vant et|chient a- pres et a- boy- er|sus, pre- nez le gal-|land, com- mença Je- nyn|_ à cri-||
 B2 g2 ggeg | fedd eccA | A2 G2 A4- | A4 z4 | z2 e3 ece | dc B2 B3 B | d2 d2 c2 c2 | B2 A2 A2 G2 | %37
w: er, sus des- sus, pre- nez|le gal- land com- men- ça Je- nyn|à cri- er,|_|Pre- n,ez, pre- nez|le gal- land, coup- pez|luy les cho- ses,|lais- sez le pen-|
 A2 z B d2 z B | d2 z B d2 cc | B4 z2 GG | ABcc B2 A2 |"^#" A2 G2 A4- | A8 |] %43
w: dant, pre- nez, pre-|nez, nez _ le gal-|land, coup- pez|luy le cho- ses, lais- sez|le pen- dant.|_|
V:2
 z8 | F3 F F2 F2 | F4 C3 C | ED G4 F2 | E2 D2 z2 CC | DEFF ECED | C3 D/E/ F4 | E4 DDEF | %8
w: |Pre- nez le gal-|land, pre- nez|le gal- * *|* land, cou- pez|luy les cho- ses, lais- sez le pen-|* * * dant,|_ cou- pez luy les|
 GG G4 C2- | C2 F4 E2 | D4 D2 G2- | GFED EF G2 | z CEF G4 | z2 C2 EF G2 | z2 D2 EF G2- | %15
w: cho- ses, lais sez|_ le pen-|dant, Je- nyn|_ iou- oyt em- my ces champs|her- soir tout tard,|her- soir tout tard|her soir tout tard|
 GFED E2 E2 | C2 G4 G2 | G2 G2 A2 F2 | G2 G2 D4 | z2 D2 G2 A2 | G3 F E2 F2 | D4 C4 | z2 G2 G2 G2 | %23
w: _ de son cor- net, qui|_ qui de|sa fem- me veid|as- sez pres,|ung gal- land|der- rie- re ung|cor- net,|et je- nyn|
 G2 G2 FFEG | FDEE FF G2 | G2 GG EGFE | G2 z G GGEG | FEDD DEFD | E2 G4 F2 | G4 c2 cc | %30
w: court et l'au- tre'a- vant et|chiens a- pres et a- boy- er|sus des- sus, pre- nez le gal-|land, sus des- sus, pre- nez|le gal- land, com- men- ça Je- nyn|à cri- *|er, sus, des- sus,|
 AcBA G2 z2 | z4 F3 F | DFED C2 CC | DC E4 E2- | E2 G3 GEG | FE D2 AAEF | GFED E2 E2 | %37
w: pre- nez le gal- land,|pre- nez,|pre- nez le gal- land, coup- pez|luy le cho- ses,|_ pre- nez, pre- nez|le gal- land, coup- pez luy les|cho- ses, lais- sez le pen-|
 CF G2 z F G2 | FF E2 z D G2 | FF E2 DDEE | F2 F2 F2 D2 | E2 E2 E4- | E8 |] %43
w: dant, pre- nez, pre- nez|le gal- land, pre- nez|le gal- land, coup- pez luy les|cho- ses, lais- sez|le pen- dant.|_|
V:3
 z4 c3 c | c2 c2 c4 | z2 c3 c c2 | c2 G2 GGAB | cc z2 z4 | z4 z2 GG | ABcc BGAA | G4 z2 AA | %8
w: Pre- nez|le gal- land,|pre- nez le|gal- land, coup- pez luy les|cho- ses,|coup- pez|luy les cho- ses, lais- sez le pen-|dant, coup- pez|
 Bcdd B2 e2- | edcB c2 B2 | A4 G4 | z4 z2 G2 | c6 B2 | AGAB ccde | f2 ed c2 G2 | dcBA B4 | %16
w: luy les cho- ses, lais- sez|_ _ _ _ _ le|pen- dant,|Je-|nyn iou-|oyt em- my ces champs, her- soir tout|tard de son cor- *||
 A2 c2 c2 B2 | c2 d2 z2 c2 | d2 e2 f2 ed | c2 g2 ec f2 | e2 d4 c2- | c2 B2 c2 e2 | e2 e2 d4- | %23
w: net, qui de sa|fem- me veid|as- sez- pres, un gal-|land der- rie- re yng|cor _ _|_ _ net, et|Je- nyn court|
 d2 e2 cdee | ddcc AA B2- | B2 cc AcBA | G2 e2 e2 ee | cAdc BBcd | c2 d2 e2 c2 | d2 e2 eece | %30
w: _ et l'au- tre'a- vant et|chiens a- pres, et a- boy- er|_ des- sus, pre- nez le gal-|land, des- sus, pre- nez|le gal- land, com- men- ça Je- nyn|à cri- * *|er, sus, des- sus, pre- nez|
 dc g2 z GAB | cABB A4 | z8 | z4 c3 c | AcBA G2 BB | Bc d2 A2 c2 | d2 c2 B4 | AcBA B4- | B4 A2 GG | %39
w: le gal- land, com- men- ça|Je- nyn à cri- er,||pre- ne,|pre- nez le gal- land, coup- pez|luy les ses, lais- sez|le pen- dant,|pre- nez le gal- land,|_ _ coup- pez|
 AAGA B2 c2- | c2 c2 dcBA | B4 A4- | A8 |] %43
w: luy les cho- ses, lais- sez|_ le pen- * * *|* dant.|_|
V:4
 F3 F F2 F2 | F6 F2- | FF F2 F2 C2 | z4 z2 DD | EFGG FDFE | D4 z4 | z2 CC DEFF | C2 C2 F2 A2 | %8
w: Pre- nez le gal-|land, pre-|* nez- le gal- land,|coup- pez|luy les cho- ses, lais- sez le pen-|dant,|coup- pez luy les cho- ses,|lais- sez le pen-|
 G4 GGAB | cBAG F2 G2 | D4 z2 G2 | c3 B A2 G2 | A2 A2 G2 z G | AB c3 B/A/ G2 | F2 G2 C2 EF | %15
w: dant, coup- pez luy les|cho- ses, lais- sez le pen-|dant, Je-|nyn iou- oyt em-|my ces champs, her-|soir tout tard _ _ _|_ _ her- soir tout|
 G2 A2 E2 E2 | F2 C2 EF G2 | C2 G2 F2 A2 | G4 z2 G2 | c2 B2 c2 F2 | G4 A2 F2 | G4 z2 C2 | %22
w: tard de son cor-|net, qui de sa fem-|me veid as- sez|pres, und|gal- land der- rie-|re un cor-|net, et|
 C2 C2 G4- | G2 G2 ABcc | FGCc FA G2- | G2 z2 z4 | z4 c2 cc | AcBA GGAB | c2 B2 A2 A2 | G4 z2 C2 | %30
w: Je- nyn court|_ et l'au- tre'a- vant et|ciens a- pres, et a- boy- er|_|sus, des- sus,|pre- nez le gal- land, com- men- ça|Je- nyn à cri-|er, com-|
 F2 G2 EEFF | E4 z2 DD | FDAB c2 FF | DFED C4 | z4 G3 G | D2 D2 F2 C2 | G2 A2 E2 E2 | %37
w: men- ça Je- nyn à cri-|er, pre- nez,|pre- nez le gal- land, pre- nez,|pre- nez le ga- land|coup- pez|luy les cho- ses,|lais- sez le pen-|
 FD E2 z D G2 | z D G2 FF E2 | DDEF G2 C2 | F4 D2 F2 | E4 A4- | A8 |] %43
w: dant, pre- nez, pr- nez,|pre- nez le gal- land,|coup- pez luy les cho- ses,|lai- sez le|pen- dant.|_|

